X:3634
T:Les Magiciens 4 (C. Caron) - Tour
O:england
C:Burns Duo
M:4/4
L:1/8
K:C
A2 AA e2 ee|d2 f2 ee e2|\
d2 cB G2 GB|d2 cB A4:|\
|:c2 BA G3B|c2 Bc de d2|\
c2 BA G3 B|d2 cB A4:|


